src/Seller Sites/Run Fest Run/Web/images/Vector.svg

<svg width="19" height="19" viewBox="0 0 19 19" fill="none" xmlns="http://www.w3.org/2000/svg">
<path d="M18.5879 8.24944C18.9619 7.88496 19.0939 7.35004 18.9326 6.85278C18.7709 6.35553 18.3497 6.00056 17.8323 5.92523L13.2318 5.25677C13.0359 5.22823 12.8666 5.10535 12.7791 4.92767L10.7223 0.759391C10.4914 0.291049 10.0227 0 9.5003 0C8.97831 0 8.50959 0.291049 8.27866 0.759391L6.22153 4.92805C6.13402 5.10573 5.96434 5.22861 5.7684 5.25715L1.16792 5.92561C0.650882 6.00056 0.229336 6.35591 0.0676423 6.85316C-0.0936713 7.35042 0.0383472 7.88534 0.412336 8.24982L3.74095 11.4944C3.88286 11.6328 3.94792 11.8322 3.91444 12.027L3.12918 16.6084C3.05955 17.0117 3.16532 17.404 3.42631 17.7133C3.83188 18.1953 4.53991 18.3422 5.10603 18.0447L9.22028 15.8814C9.39225 15.7912 9.60873 15.792 9.78032 15.8814L13.895 18.0447C14.0951 18.1501 14.3085 18.2033 14.5288 18.2033C14.9309 18.2033 15.3122 18.0245 15.5743 17.7133C15.8357 17.404 15.9411 17.011 15.8714 16.6084L15.0858 12.027C15.0523 11.8318 15.1174 11.6328 15.2593 11.4944L18.5879 8.24944Z" fill="#153863"/>
</svg>

<?xml version="1.0" encoding="utf-8"?>
<!-- Generator: Adobe Illustrator 23.1.1, SVG Export Plug-In . SVG Version: 6.00 Build 0)  -->
<svg version="1.1" id="Layer_1" xmlns="http://www.w3.org/2000/svg" xmlns:xlink="http://www.w3.org/1999/xlink" x="0px" y="0px"
	 viewBox="0 0 19 19" style="enable-background:new 0 0 19 19;" xml:space="preserve">
<style type="text/css">
	.st0{fill:#281840;}
</style>
<path class="st0" d="M18.6,8.2c0.4-0.4,0.5-0.9,0.3-1.4c-0.2-0.5-0.6-0.9-1.1-0.9l-4.6-0.7c-0.2,0-0.4-0.2-0.5-0.3l-2.1-4.2
	C10.5,0.3,10,0,9.5,0C9,0,8.5,0.3,8.3,0.8L6.2,4.9C6.1,5.1,6,5.2,5.8,5.3L1.2,5.9C0.7,6,0.2,6.4,0.1,6.9c-0.2,0.5,0,1,0.3,1.4
	l3.3,3.2c0.1,0.1,0.2,0.3,0.2,0.5l-0.8,4.6c-0.1,0.4,0,0.8,0.3,1.1c0.4,0.5,1.1,0.6,1.7,0.3l4.1-2.2c0.2-0.1,0.4-0.1,0.6,0l4.1,2.2
	c0.2,0.1,0.4,0.2,0.6,0.2c0.4,0,0.8-0.2,1-0.5c0.3-0.3,0.4-0.7,0.3-1.1L15.1,12c0-0.2,0-0.4,0.2-0.5L18.6,8.2z"/>
</svg>
